!!!OTL: Graf und Nonne (Die Nonne) Ich stand auf hohen Bergen,
!!!ARE: Europa, Mitteleuropa, Deutschland (BRD), Hessen, Kassel, Vollmarshausen
!!!YOR: 8, S. 70
!!    1928 aufgezeichnet
!!!SCT: Q0155T
!!!YEM: Copyright 1995, estate of Helmut Schaffrath.
**kern
*ICvox
*Ivox
*M3/4
*k[]
*C:
{8e
8d
=1
4.c
8d
8e
8d
=2
8c
8g
4g}
{8e
8d
=3
4.c
8d
8e
8e
=4
2d}
{8c
8e
=5
4g
8e
8c
8a
8g
=6
8g
8f
4d}
{8g
8cc
=7
4g
4e
8d
8d
=8
2c}
==
!!!AGN: Ballade, Standesunterschied, vergebliche Werbung, Liebe
!!!ONB: ESAC (Essen Associative Code) Database: BALLADE
!!!AMT: simple triple
!!!AIN: vox
!!!EED: Helmut Schaffrath
!!!EEV: 1.0
*-
